X:3
%
%%titlespace -2cm
M:C
L:1/8
K:Gminor
%
V:F clef=treble        space=+10pt bracket=2
V:B clef=bass          
Q:"Adagio"
[V:F] e2- e/>g/f/>e/ d/>B/d/>f/ _a/>g/f/>a/ |\
	g/>e/d/>e/ c'/>d'/b/>c'/ _a/>b/g/>a/ f/g//_a//f/>e/ |
[V:B] ef g"6""5"_a bB "6b"c"5"d |\
	e"6"f/>"6"g/ _a"6"g "6"fe "6"_aA |
[V:F] df b-b//B//c//_d// ce _a-a//c//=d//e// |\
	d/>B/e/>_a/ gf/>e/ =a/>f/b/>d/ c>B |
[V:B] Bb "6"ge _aA/>G/ A_a |\
	b/>_a/"6"g/>a/ "6\n4"b"5\n3"B "\="f/>e/"6"d/>"7\n5"e/ "4"f"3"F |
[V:F] BB e>d c/>_A/G/>F/ f>e |\
	d/>B/_A/>G/ g>f e/>c/B/>_A/ _a>g |\
	^f/>g/f/>g/ =ad
[V:B] B2 z E _A2 z/ f/_a/"7"f/ |\
	b2 z/ g/=b/"7"g/ c2 z/ "6b"c/e/"5"c/ |\
	"#"dd dd'/>c'/
[V:F] g>f e/>d/c/>B/ |\
	A/>^f/g/>B/ A>G e>f d3/2e//f// |\
	g2- g/a//b// a/b//g// ^f4 |]
[V:B] "6"bB cc' |\
	"#"d'/>c'/"6"b/>"7"c'/ "4"d'"3#"d "6"g2 "6"f2 |\
	_e2 "7\n5"^c2 "#"d4 |]

